pix_core/t/lock.svg

<!DOCTYPE svg PUBLIC "-//W3C//DTD SVG 1.1//EN" "http://www.w3.org/Graphics/SVG/1.1/DTD/svg11.dtd" [
	<!ENTITY ns_flows "http://ns.adobe.com/Flows/1.0/">
]><svg xmlns="http://www.w3.org/2000/svg" width="12" height="12" viewBox="0 0 12 12" preserveAspectRatio="xMinYMid meet" overflow="visible"><path d="M6.5 0h-1c-1.7 0-3 1.3-3 3h2c0-.6.5-1 1-1h1c.5 0 1 .4 1 1v2h-6.5c-.6 0-1 .4-1 1v5c0 .6.4 1 1 1h10c.6 0 1-.4 1-1v-5c0-.6-.4-1-1-1h-1.5v-2c0-1.7-1.3-3-3-3zm3.5 7.5v2c0 .3-.2.5-.5.5h-2.5l-.5-1-.1-.1c.4-.2.6-.5.6-.9 0-.5-.4-1-1-1-.5 0-1 .5-1 1 0 .4.2.7.6.9l-.1.1-.5 1h-2.5c-.3 0-.5-.2-.5-.5v-2c0-.3.2-.5.5-.5h7c.3 0 .5.2.5.5z" fill="#888"/></svg>

<?xml version="1.0" encoding="utf-8"?>
<!-- Generator: Adobe Illustrator 15.1.0, SVG Export Plug-In  -->
<!DOCTYPE svg PUBLIC "-//W3C//DTD SVG 1.1//EN" "http://www.w3.org/Graphics/SVG/1.1/DTD/svg11.dtd" [
	<!ENTITY ns_flows "http://ns.adobe.com/Flows/1.0/">
]>
<svg version="1.1"
	 xmlns="http://www.w3.org/2000/svg" xmlns:xlink="http://www.w3.org/1999/xlink" xmlns:a="http://ns.adobe.com/AdobeSVGViewerExtensions/3.0/"
	 x="0px" y="0px" width="12px" height="12px" viewBox="0 0 12 12" style="overflow:visible;enable-background:new 0 0 12 12;"
	 xml:space="preserve" preserveAspectRatio="xMinYMid meet">
<defs>
</defs>
<path style="fill:#29a1c4;" d="M6.5,0h-1c-1.7,0-3,1.3-3,3h2c0-0.6,0.5-1,1-1h1c0.5,0,1,0.4,1,1v2L1,5C0.4,5,0,5.4,0,6l0,5
	c0,0.6,0.4,1,1,1h10c0.6,0,1-0.4,1-1V6c0-0.6-0.4-1-1-1H9.5V3C9.5,1.3,8.2,0,6.5,0z M10,7.5v2C10,9.8,9.8,10,9.5,10L7,10L6.5,9
	L6.4,8.9C6.8,8.7,7,8.4,7,8c0-0.5-0.4-1-1-1C5.5,7,5,7.5,5,8c0,0.4,0.2,0.7,0.6,0.9L5.5,9L5,10l-2.5,0C2.2,10,2,9.8,2,9.5v-2
	C2,7.2,2.2,7,2.5,7h7C9.8,7,10,7.2,10,7.5z"/>
</svg>
